X: 20702
T: The LASSES OF THE FERRY
R: Strathspey.
Q: "Lively, but not too fast."
%R: strathspey
B: W. Hamilton "Universal Tune-Book" Vol. 2 Glasgow 1846 p.70 #2
S: http://s3-eu-west-1.amazonaws.com/itma.dl.printmaterial/book_pdfs/hamiltonvol2web.pdf
Z: 2016 John Chambers <jc:trillian.mit.edu>
N: The rhythms between the strains aren't quite right; not fixed.
N: The 2nd strain has initial repeat but no final repeat; fixed.
M: C|
L: 1/8
K: G
% - - - - - - - - - - - - - - - - - - - - - - - - -
|:\
G2G>B A>GA>B | G>ED>E A<AA2 |\
G>GG>B A>GA>B | G>ED>E G<GG :|\
|: d |\
d>eg>B A>GA>B | d>eg>B A<AA2 |\
d>eg>B A>GA>B | G>ED>E G<GG2 :|
% - - - - - - - - - - - - - - - - - - - - - - - - -

%%sep 1 1 500
%%sep 1 1 500

